SVG_Azure_All/Active Directory Federation Services.svg

<?xml version="1.0" encoding="UTF-8" standalone="no"?>
<!-- Generated by Microsoft Visio, SVG Export Active Directory Federation Services.svg Page-1 -->

<svg
   xmlns:dc="http://purl.org/dc/elements/1.1/"
   xmlns:cc="http://creativecommons.org/ns#"
   xmlns:rdf="http://www.w3.org/1999/02/22-rdf-syntax-ns#"
   xmlns:svg="http://www.w3.org/2000/svg"
   xmlns="http://www.w3.org/2000/svg"
   xmlns:sodipodi="http://sodipodi.sourceforge.net/DTD/sodipodi-0.dtd"
   xmlns:inkscape="http://www.inkscape.org/namespaces/inkscape"
   width="0.70321447in"
   height="0.78569376in"
   viewBox="0 0 50.631655 56.569934"
   xml:space="preserve"
   class="st8"
   version="1.1"
   id="svg133"
   sodipodi:docname="Active Directory Federation Services.svg"
   style="font-size:12px;overflow:visible;color-interpolation-filters:sRGB;fill:none;fill-rule:evenodd;stroke-linecap:square;stroke-miterlimit:3"
   inkscape:version="0.92.5 (2060ec1f9f, 2020-04-08)"><metadata
   id="metadata137"><rdf:RDF><cc:Work
       rdf:about=""><dc:format>image/svg+xml</dc:format><dc:type
         rdf:resource="http://purl.org/dc/dcmitype/StillImage" /></cc:Work></rdf:RDF></metadata><sodipodi:namedview
   pagecolor="#ffffff"
   bordercolor="#666666"
   borderopacity="1"
   objecttolerance="10"
   gridtolerance="10"
   guidetolerance="10"
   inkscape:pageopacity="0"
   inkscape:pageshadow="2"
   inkscape:window-width="640"
   inkscape:window-height="480"
   id="namedview135"
   showgrid="false"
   inkscape:zoom="1.3775494"
   inkscape:cx="22.253015"
   inkscape:cy="37.714137"
   inkscape:window-x="0"
   inkscape:window-y="0"
   inkscape:window-maximized="0"
   inkscape:current-layer="svg133" />
	<style
   type="text/css"
   id="style2">
	<![CDATA[
		.st1 {fill:url(#grad0-11);stroke:none;stroke-linecap:butt;stroke-width:35.9597}
		.st2 {fill:#003067;stroke:none;stroke-linecap:butt;stroke-width:35.9597}
		.st3 {fill:#50e6ff;stroke:none;stroke-linecap:butt;stroke-width:35.9597}
		.st4 {fill:#ffffff;stroke:none;stroke-linecap:round;stroke-linejoin:round;stroke-width:0.750001}
		.st5 {fill:url(#grad0-37);stroke:none;stroke-linecap:butt;stroke-width:9.5278}
		.st6 {fill:#ffffff;stroke:none;stroke-width:1}
		.st7 {fill:none;stroke:none;stroke-linecap:butt;stroke-width:0.750001;visibility:hidden}
		.st8 {fill:none;fill-rule:evenodd;font-size:12px;overflow:visible;stroke-linecap:square;stroke-miterlimit:3}
	]]>
	</style>

	<defs
   id="Patterns_And_Gradients">
		<linearGradient
   id="grad0-11"
   x1="-0.00042999239"
   y1="55.245897"
   x2="43.454508"
   y2="55.245897"
   gradientTransform="scale(0.76815967,1.3018127)"
   gradientUnits="userSpaceOnUse">
			<stop
   offset="0"
   stop-color="#949494"
   stop-opacity="1"
   id="stop4" />
			<stop
   offset="0.53"
   stop-color="#a2a2a2"
   stop-opacity="1"
   id="stop6" />
			<stop
   offset="1"
   stop-color="#b3b3b3"
   stop-opacity="1"
   id="stop8" />
		</linearGradient>
		<linearGradient
   id="grad0-37"
   x1="0.35512042"
   y1="108.9824"
   x2="31.963964"
   y2="108.9824"
   gradientTransform="scale(1.0953281,0.91296849)"
   gradientUnits="userSpaceOnUse">
			<stop
   offset="0"
   stop-color="#0078d4"
   stop-opacity="1"
   id="stop11" />
			<stop
   offset="0.16"
   stop-color="#1380da"
   stop-opacity="1"
   id="stop13" />
			<stop
   offset="0.53"
   stop-color="#3c91e5"
   stop-opacity="1"
   id="stop15" />
			<stop
   offset="0.82"
   stop-color="#559cec"
   stop-opacity="1"
   id="stop17" />
			<stop
   offset="1"
   stop-color="#5ea0ef"
   stop-opacity="1"
   id="stop19" />
		</linearGradient>
	</defs>
	<g
   id="g131"
   transform="translate(-35.95967,-35.960325)">
		<title
   id="title23">Page-1</title>
		<g
   id="group10501-1"
   transform="translate(35.96,-35.8359)">
			<title
   id="title25">Active Directory Federation Services</title>
			<g
   id="group10502-2">
				<title
   id="title27">Page-1</title>
				<g
   id="group10503-3">
					<title
   id="title29">Sheet.10503</title>
					<g
   id="group10504-4"
   transform="translate(0,-0.12388)">
						<title
   id="title31">Sheet.10504</title>
						<g
   id="group10505-5">
							<title
   id="title33">Icon-databases-136.149</title>
							<g
   id="group10506-6">
								<title
   id="title35">path4-5</title>
								<g
   id="group10507-7">
									<title
   id="title37">Sheet.10507</title>
									<g
   id="shape10508-8">
										<title
   id="title39">Sheet.10508</title>
										<path
   d="m 33.38,126.56 a 1.97136,1.96257 -180 0 1 -1.94,1.93 H 1.93 A 1.93738,1.92873 -180 0 1 0,126.56 V 73.85 a 1.90339,1.89489 -180 0 1 1.93,-1.93 h 29.51 a 1.93738,1.92873 -180 0 1 1.94,1.93 z"
   class="st1"
   id="path41"
   inkscape:connector-curvature="0"
   style="fill:url(#grad0-11);stroke:none;stroke-width:35.95970154;stroke-linecap:butt" />
									</g>
								</g>
							</g>
							<g
   id="group10509-12"
   transform="translate(4.89442,-33.1267)">
								<title
   id="title46">path6-7</title>
								<g
   id="group10510-13">
									<title
   id="title48">Sheet.10510</title>
									<g
   id="shape10511-14">
										<title
   id="title50">Sheet.10511</title>
										<path
   d="m 0,124.88 a 3.63683,3.6206 -180 0 1 3.61,-3.6 h 16.64 a 3.63683,3.6206 -180 0 1 3.74,3.6 3.63683,3.6206 -180 0 1 -3.74,3.61 H 3.61 A 3.63683,3.6206 -180 0 1 0,124.88 Z m 0,-10.7 a 3.63683,3.6206 -180 0 1 3.61,-3.61 h 16.64 a 3.63683,3.6206 -180 0 1 3.74,3.61 3.63683,3.6206 -180 0 1 -3.74,3.59 H 3.61 A 3.63683,3.6206 -180 0 1 0,114.18 Z"
   class="st2"
   id="path52"
   inkscape:connector-curvature="0"
   style="fill:#003067;stroke:none;stroke-width:35.95970154;stroke-linecap:butt" />
									</g>
								</g>
							</g>
							<g
   id="group10512-16"
   transform="translate(6.25398,-44.999)">
								<title
   id="title57">circle8-5</title>
								<g
   id="group10513-17">
									<title
   id="title59">Sheet.10513</title>
									<g
   id="shape10514-18">
										<title
   id="title61">Sheet.10514</title>
										<ellipse
   cx="2.4472101"
   cy="126.052"
   rx="2.4472101"
   ry="2.43629"
   class="st3"
   id="ellipse63"
   style="fill:#50e6ff;stroke:none;stroke-width:35.95970154;stroke-linecap:butt" />
									</g>
								</g>
							</g>
							<g
   id="group10515-20"
   transform="translate(6.25398,-34.3064)">
								<title
   id="title68">circle10-2</title>
								<g
   id="group10516-21">
									<title
   id="title70">Sheet.10516</title>
									<g
   id="shape10517-22">
										<title
   id="title72">Sheet.10517</title>
										<ellipse
   cx="2.4472101"
   cy="126.052"
   rx="2.4472101"
   ry="2.43629"
   class="st3"
   id="ellipse74"
   style="fill:#50e6ff;stroke:none;stroke-width:35.95970154;stroke-linecap:butt" />
									</g>
								</g>
							</g>
						</g>
					</g>
					<g
   id="group10518-24"
   transform="translate(15.6203)">
						<title
   id="title81">Sheet.10518</title>
						<g
   id="group10519-25"
   transform="translate(2.78328,-1.70071)">
							<title
   id="title83">Sheet.10519</title>
							<g
   id="shape10520-26">
								<title
   id="title85">Sheet.10520</title>
								<path
   d="m 0,128.49 14.92,-24.82 14.99,24.82 z"
   class="st4"
   id="path87"
   inkscape:connector-curvature="0"
   style="fill:#ffffff;stroke:none;stroke-width:0.75000101;stroke-linecap:round;stroke-linejoin:round" />
							</g>
						</g>
						<g
   id="group10521-28">
							<title
   id="title91">Page-1</title>
							<g
   id="group10522-29">
								<title
   id="title93">ADFS</title>
								<g
   id="group10523-30">
									<title
   id="title95">Sheet.10523</title>
									<g
   id="group10524-31">
										<title
   id="title97">Sheet.10524</title>
										<g
   id="group10525-32">
											<title
   id="title99">Sheet.10525</title>
											<g
   id="group10526-33">
												<title
   id="title101">path14-5-6</title>
												<g
   id="shape10527-34">
													<title
   id="title103">Sheet.10527</title>
													<path
   d="M 34.72,126.42 18.95,100.33 c -0.7,-1.11 -1.81,-1.11 -2.49,0 L 0.68,126.42 c -0.68,1.1 -0.13,1.92 1.25,1.92 h 31.54 c 1.38,0.15 1.93,-0.82 1.25,-1.92 z m -7.75,-0.55 h -6.92 v -4.14 h 2.77 v -2.76 h -4.14 -1.41 -4.13 v 2.76 h 2.76 v 4.14 H 8.99 v -4.14 h 2.78 v -4.13 h 1.39 4.11 v -2.76 h -2.76 v -4.13 h 6.91 v 4.13 h -2.78 v 2.76 h 4.15 1.39 v 4.13 h 2.77 v 4.14 z"
   class="st5"
   id="path105"
   inkscape:connector-curvature="0"
   style="fill:url(#grad0-37);stroke:none;stroke-width:9.52779961;stroke-linecap:butt" />
												</g>
											</g>
											<g
   id="group10528-38"
   transform="translate(14.5119,-13.6549)">
												<title
   id="title109">rect1197</title>
												<g
   id="shape10529-39">
													<title
   id="title111">Sheet.10529</title>
													<rect
   x="0"
   y="124.363"
   width="6.9112802"
   height="4.12607"
   class="st6"
   id="rect113"
   style="fill:#ffffff;stroke:none;stroke-width:1" />
												</g>
												<g
   id="shape10530-41">
													<title
   id="title116">Sheet.10530</title>
													<rect
   x="0"
   y="124.363"
   width="6.9112802"
   height="4.12607"
   class="st7"
   id="rect118"
   style="visibility:hidden;fill:none;stroke:none;stroke-width:0.75000101;stroke-linecap:butt" />
												</g>
											</g>
										</g>
									</g>
								</g>
							</g>
						</g>
					</g>
				</g>
			</g>
		</g>
	</g>
</svg>

<?xml version="1.0" encoding="UTF-8" standalone="no"?>
<!DOCTYPE svg PUBLIC "-//W3C//DTD SVG 1.1//EN" "http://www.w3.org/Graphics/SVG/1.1/DTD/svg11.dtd">
<!-- Generated by Microsoft Visio, SVG Export Active Directory Federation Services.svg Page-1 -->
<svg xmlns="http://www.w3.org/2000/svg" xmlns:xlink="http://www.w3.org/1999/xlink" xmlns:ev="http://www.w3.org/2001/xml-events"
		width="1.46248in" height="1.78457in" viewBox="0 0 105.299 128.489" xml:space="preserve" color-interpolation-filters="sRGB"
		class="st8">
	<style type="text/css">
	<![CDATA[
		.st1 {fill:url(#grad0-11);stroke:none;stroke-linecap:butt;stroke-width:35.9597}
		.st2 {fill:#003067;stroke:none;stroke-linecap:butt;stroke-width:35.9597}
		.st3 {fill:#50e6ff;stroke:none;stroke-linecap:butt;stroke-width:35.9597}
		.st4 {fill:#ffffff;stroke:none;stroke-linecap:round;stroke-linejoin:round;stroke-width:0.750001}
		.st5 {fill:url(#grad0-37);stroke:none;stroke-linecap:butt;stroke-width:9.5278}
		.st6 {fill:#ffffff;stroke:none;stroke-width:1}
		.st7 {fill:none;stroke:none;stroke-linecap:butt;stroke-width:0.750001;visibility:hidden}
		.st8 {fill:none;fill-rule:evenodd;font-size:12px;overflow:visible;stroke-linecap:square;stroke-miterlimit:3}
	]]>
	</style>

	<defs id="Patterns_And_Gradients">
		<linearGradient id="grad0-11" x1="0" y1="0" x2="1" y2="0" gradientTransform="rotate(-90 0.5 0.5)">
			<stop offset="0" stop-color="#949494" stop-opacity="1"/>
			<stop offset="0.53" stop-color="#a2a2a2" stop-opacity="1"/>
			<stop offset="1" stop-color="#b3b3b3" stop-opacity="1"/>
		</linearGradient>
		<linearGradient id="grad0-37" x1="0" y1="0" x2="1" y2="0" gradientTransform="rotate(-89.652058299692 0.5 0.5)">
			<stop offset="0" stop-color="#0078d4" stop-opacity="1"/>
			<stop offset="0.16" stop-color="#1380da" stop-opacity="1"/>
			<stop offset="0.53" stop-color="#3c91e5" stop-opacity="1"/>
			<stop offset="0.82" stop-color="#559cec" stop-opacity="1"/>
			<stop offset="1" stop-color="#5ea0ef" stop-opacity="1"/>
		</linearGradient>
	</defs>
	<g>
		<title>Page-1</title>
		<g id="group10270-1" transform="translate(35.96,-35.8359)">
			<title>Active Directory Federation Services</title>
			<g id="group10271-2">
				<title>Page-1</title>
				<g id="group10272-3">
					<title>Sheet.10272</title>
					<g id="group10273-4" transform="translate(2.59792E-13,-0.12388)">
						<title>Sheet.10273</title>
						<g id="group10274-5">
							<title>Icon-databases-136.149</title>
							<g id="group10275-6">
								<title>path4-5</title>
								<g id="group10276-7">
									<title>Sheet.10276</title>
									<g id="shape10277-8">
										<title>Sheet.10277</title>
										<path d="M33.38 126.56 A1.97136 1.96257 180 0 1 31.44 128.49 L1.93 128.49 A1.93738 1.92873
													 180 0 1 0 126.56 L0 73.85 A1.90339 1.89489 180 0 1 1.93 71.92 L31.44 71.92 A1.93738
													 1.92873 180 0 1 33.38 73.85 L33.38 126.56 Z" class="st1"/>
									</g>
								</g>
							</g>
							<g id="group10278-12" transform="translate(4.89442,-33.1267)">
								<title>path6-7</title>
								<g id="group10279-13">
									<title>Sheet.10279</title>
									<g id="shape10280-14">
										<title>Sheet.10280</title>
										<path d="M-0 124.88 A3.63683 3.6206 180 0 1 3.61 121.28 L20.25 121.28 A3.63683 3.6206 180
													 0 1 23.99 124.88 A3.63683 3.6206 180 0 1 20.25 128.49 L3.61 128.49 A3.63683
													 3.6206 180 0 1 -0 124.88 ZM-0 114.18 A3.63683 3.6206 180 0 1 3.61 110.57 L20.25
													 110.57 A3.63683 3.6206 180 0 1 23.99 114.18 A3.63683 3.6206 180 0 1 20.25 117.77
													 L3.61 117.77 A3.63683 3.6206 180 0 1 -0 114.18 Z" class="st2"/>
									</g>
								</g>
							</g>
							<g id="group10281-16" transform="translate(6.25398,-44.999)">
								<title>circle8-5</title>
								<g id="group10282-17">
									<title>Sheet.10282</title>
									<g id="shape10283-18">
										<title>Sheet.10283</title>
										<ellipse cx="2.44721" cy="126.052" rx="2.44721" ry="2.43629" class="st3"/>
									</g>
								</g>
							</g>
							<g id="group10284-20" transform="translate(6.25398,-34.3064)">
								<title>circle10-2</title>
								<g id="group10285-21">
									<title>Sheet.10285</title>
									<g id="shape10286-22">
										<title>Sheet.10286</title>
										<ellipse cx="2.44721" cy="126.052" rx="2.44721" ry="2.43629" class="st3"/>
									</g>
								</g>
							</g>
						</g>
					</g>
					<g id="group10287-24" transform="translate(15.6203,-2.84217E-13)">
						<title>Sheet.10287</title>
						<g id="group10288-25" transform="translate(2.78328,-1.70071)">
							<title>Sheet.10288</title>
							<g id="shape10289-26">
								<title>Sheet.10289</title>
								<path d="M0 128.49 L14.92 103.67 L29.91 128.49 L0 128.49 Z" class="st4"/>
							</g>
						</g>
						<g id="group10290-28">
							<title>Page-1</title>
							<g id="group10291-29">
								<title>ADFS</title>
								<g id="group10292-30">
									<title>Sheet.10292</title>
									<g id="group10293-31">
										<title>Sheet.10293</title>
										<g id="group10294-32">
											<title>Sheet.10294</title>
											<g id="group10295-33">
												<title>path14-5-6</title>
												<g id="shape10296-34">
													<title>Sheet.10296</title>
													<path d="M34.72 126.42 L18.95 100.33 C18.25 99.22 17.14 99.22 16.46 100.33 L0.68
																 126.42 C0 127.52 0.55 128.34 1.93 128.34 L33.47 128.34 C34.85 128.49
																 35.4 127.52 34.72 126.42 ZM26.97 125.87 L20.05 125.87 L20.05 121.73
																 L22.82 121.73 L22.82 118.97 L18.68 118.97 L17.27 118.97 L13.14 118.97
																 L13.14 121.73 L15.9 121.73 L15.9 125.87 L8.99 125.87 L8.99 121.73
																 L11.77 121.73 L11.77 117.6 L13.16 117.6 L17.27 117.6 L17.27 114.84
																 L14.51 114.84 L14.51 110.71 L21.42 110.71 L21.42 114.84 L18.64 114.84
																 L18.64 117.6 L22.79 117.6 L24.18 117.6 L24.18 121.73 L26.95 121.73
																 L26.95 125.87 L26.97 125.87 Z" class="st5"/>
												</g>
											</g>
											<g id="group10297-38" transform="translate(14.5119,-13.6549)">
												<title>rect1197</title>
												<g id="shape10298-39">
													<title>Sheet.10298</title>
													<rect x="0" y="124.363" width="6.91128" height="4.12607" class="st6"/>
												</g>
												<g id="shape10299-41">
													<title>Sheet.10299</title>
													<rect x="0" y="124.363" width="6.91128" height="4.12607" class="st7"/>
												</g>
											</g>
										</g>
									</g>
								</g>
							</g>
						</g>
					</g>
				</g>
			</g>
		</g>
	</g>
</svg>
